X:1
T:What a Friend Thou Art to Me!
T:What a Friend Thou Art to Me!
T:Hubert Platt Main
T:Frances Jane (Fanny) Crosby, 1896
T:Public Domain Courtesy of the Cyber Hymnal™
T:Public Domain Courtesy of the Cyber Hymnal™
C:Hubert Platt Main
Z:Public Domain
Z:Courtesy of the Cyber Hymnal™
%%score ( 1 2 ) ( 3 4 )
L:1/8
Q:1/4=107
M:3/4
K:Eb
V:1 treble 
V:2 treble 
V:3 bass 
V:4 bass 
V:1
 [GB]2 [FA]3 [EG] | [EG] [DF]3 z2 | [DF]>[DG] [DA]3 [DA] | [DG][Dc] [EB]4 | [EB]2 [EA]3 [EG] | %5
w: 1.~O my Re-|deem- er,|What a friend Thou|art to me!|Oh, what a|
w: 2.~When in their|beau- ty|Stars un- veil their|sil- ver light,|Then, O my|
w: 3.~Je- sus, my|Sav- ior,|When the last deep|sha- dows fall;|When in the|
 [EG] [DF]3 z2 | [DF]>[DG] A2 [B,D]2 | [B,E]4 z2 | [EG][EB] e3 [Fd] | [Fd]2 [Ec]2 z2 | %10
w: ref- uge|I have found in|Thee!|When the way was|drear- y,|
w: Sav- ior,|Give me songs at|night—|Songs of yon- der|man- sions,|
w: si- lence|I shall hear Thy|call—|In Thine arms re-|pos- ing,|
 [EF]>[EF] [DB]3 [DA] | [DG][Dc] [EB]4 | [EG]>[EB] [Ge]3 [Fd] | [Fd]2 [Ec]2 z2 | %14
w: And my heart was|sore op- pressed,|’Twas Thy voice that|lulled me|
w: Where the dear ones,|gone be- fore,|Sing Thy praise for|ev- er,|
w: Let me breathe my|life a- way,|And a- wake tri-|umph- ant,|
 [GB]>[EB] [DB]2"^riten." [B,D]2 | [B,E]6 ||"^Refrain" [EG]2 [EG] z (3([_DG]FG) | [CA]2 [CA] z3 | %18
w: To a calm sweet|rest.|||
w: On that peace- ful|shore.|Near- er, draw * *|near- er,|
w: In e- ter- nal|day.|||
 [DF]>[DF] [DB]3 [DA] | [DG][Dc] [EB]4 | [EG]2 [EG] z (3(G{[eg]}FG) | [FA]2 [FA] z3 | %22
w: ||||
w: Till my soul is|lost in Thee;|Near- er, draw * *|near- er,|
w: ||||
 B,>B, G2 [DF]2 | E4 z2 |] %24
w: ||
w: Bless- èd Lord, to|me.|
w: ||
V:2
 x6 | x6 | x6 | x6 | x6 | x6 | x2 (CD) x2 | x6 | x2 (G2 F) x | x6 | x6 | x6 | x6 | x6 | x6 | x6 || %16
 x6 | x6 | x6 | x6 | x4 =E2 | x6 | B,>B, (B,E) x2 | E4 x2 |] %24
V:3
 [E,B,]2 [D,B,]3 [E,B,] | [B,,B,] [B,,A,]3 z2 | [B,,A,]>[B,,G,] [B,,F,]3 [B,,C] | %3
 [B,,B,][B,,A,] [E,G,]4 | [G,_D]2 [A,C]3 [=A,C] | B, B,3 z2 | [B,,A,]>[B,,G,] [B,,F,]2 [B,,A,]2 | %7
 [E,G,]4 z2 | [E,B,][E,G,] ([E,B,]2 [G,=B,])[G,B,] | [A,=B,]2 [A,C]2 z2 | [=A,C]>[A,C] B,3 [B,,C] | %11
 [B,,B,][B,,A,] [E,G,]4 | [E,B,]>[E,G,] [E,B,]3 [G,=B,] | [A,=B,]2 [A,C]2 z2 | %14
 B,>[B,,G,] [B,,F,]2 [B,,A,]2 | [E,G,]6 || [E,B,]2 [E,B,] z [E,B,]2 | [F,A,]2 [F,A,] z3 | %18
 [B,,B,]>[B,,B,] [B,,F,]3 [B,,C] | [B,,B,][B,,A,] [E,G,]4 | [E,B,]2 [E,B,] z [C,C]2 | %21
 [F,C]2 [F,C] z3 | B,>B, (EB,) (z A,) | [E,G,]4 z2 |] %24
V:4
 x6 | x6 | x6 | x6 | x6 | B, B,3 x2 | x6 | x6 | x6 | x6 | x2 B,3 x | x6 | x6 | x6 | B,3/2 x9/2 | %15
 x6 || x6 | x6 | x6 | x6 | x6 | x6 | B,>B, B,,2 B,,2 | x6 |] %24

